modules/hawcons-stroke/icons/icon-50-one-finger-swipe-down.svg

<?xml version="1.0" encoding="UTF-8" standalone="no"?>
<svg width="32px" height="32px" viewBox="0 0 32 32" version="1.1" xmlns="http://www.w3.org/2000/svg" xmlns:xlink="http://www.w3.org/1999/xlink" xmlns:sketch="http://www.bohemiancoding.com/sketch/ns">
    <!-- Generator: Sketch 3.0.3 (7891) - http://www.bohemiancoding.com/sketch -->
    <title>icon 50 one finger swipe down</title>
    <desc>Created with Sketch.</desc>
    <defs></defs>
    <g id="Page-1" stroke="none" stroke-width="1" fill="none" fill-rule="evenodd" sketch:type="MSPage">
        <g id="icon-50-one-finger-swipe-down" sketch:type="MSArtboardGroup" fill="#929292">
            <path d="M17,23 L17,29.049999 L20.25,25.799999 L21,26.549999 L16.5,31.049999 L12,26.549999 L12.75,25.799999 L16,29.049999 L16,23 L12,23 L12,6.50502686 C12,4.01356828 14.0147186,2 16.5,2 C18.9802243,2 21,4.01696923 21,6.50502686 L21,23 L17,23 L17,23 L17,23 Z M16.5,3 C14.5670034,3 13,4.57101442 13,6.50703494 L13,22 L20,22 L20,6.50703494 C20,4.57015302 18.4290634,3 16.5,3 L16.5,3 Z M16.5,4 C15.1192881,4 14,5.12855411 14,6.50977516 L14,10 L19,10 L19,6.50977516 C19,5.12366461 17.8903379,4 16.5,4 L16.5,4 Z M16.5,5 C15.6715729,5 15,5.67854548 15,6.50083274 L15,9 L18,9 L18,6.50083274 C18,5.6719457 17.3342028,5 16.5,5 L16.5,5 Z M14,13 L14,14 L19,14 L19,13 L14,13 L14,13 Z M14,15 L14,16 L19,16 L19,15 L14,15 L14,15 Z" id="one-finger-swipe-down" sketch:type="MSShapeGroup"></path>
        </g>
    </g>
</svg>

<svg width="32" height="32" xmlns="http://www.w3.org/2000/svg"><path d="M17 23v6.05l3.25-3.25.75.75-4.5 4.5-4.5-4.5.75-.75L16 29.05V23h-4V6.505A4.5 4.5 0 0 1 16.5 2C18.98 2 21 4.017 21 6.505V23h-4zm-.5-20A3.504 3.504 0 0 0 13 6.507V22h7V6.507A3.506 3.506 0 0 0 16.5 3zm0 1C15.12 4 14 5.129 14 6.51V10h5V6.51C19 5.124 17.89 4 16.5 4zm0 1c-.828 0-1.5.679-1.5 1.5V9h3V6.5c0-.828-.666-1.5-1.5-1.5zM14 13v1h5v-1h-5zm0 2v1h5v-1h-5z" fill="#929292" fill-rule="evenodd"/></svg>
